Newaita-dark/apps/22/stage.svg

<svg height="22" viewBox="0 0 22 22" width="22" xmlns="http://www.w3.org/2000/svg" xmlns:xlink="http://www.w3.org/1999/xlink"><linearGradient id="a" gradientUnits="userSpaceOnUse" x1="10.9151136" x2="10.9151136" y1="19.27333715" y2="20.18293042919"><stop offset="0" stop-opacity=".27451"/><stop offset="1" stop-opacity="0"/></linearGradient><linearGradient id="b"><stop offset="0" stop-opacity=".313726"/><stop offset=".222222" stop-opacity=".27451"/><stop offset="1" stop-opacity="0"/></linearGradient><radialGradient id="c" cx="450.908936" cy="189.579361" gradientTransform="matrix(.00000012 -.0537161 -.0966889 -.00000007 36.522014 43.721791)" gradientUnits="userSpaceOnUse" r="21.166656" xlink:href="#b"/><radialGradient id="d" cx="450.908936" cy="189.579361" gradientTransform="matrix(-.00000012 .0537161 .0966889 .00000007 -14.578108 -5.175142)" gradientUnits="userSpaceOnUse" r="21.166656" xlink:href="#b"/><radialGradient id="e" cx="450.908936" cy="189.579361" gradientTransform="matrix(-.00000012 -.0537161 .0966889 -.00000007 -14.578108 43.721791)" gradientUnits="userSpaceOnUse" r="21.166656" xlink:href="#b"/><radialGradient id="f" cx="450.908936" cy="189.579361" gradientTransform="matrix(.00000012 .0537161 -.0966889 .00000007 36.522013 -5.175142)" gradientUnits="userSpaceOnUse" r="21.166656" xlink:href="#b"/><linearGradient id="g" gradientUnits="userSpaceOnUse" x1="10.9151166" x2="10.9151166" y1="2.04791665838" y2="19.33018415"><stop offset="0" stop-color="#eee"/><stop offset="1" stop-color="#e0e0e0"/></linearGradient><linearGradient id="h" gradientUnits="userSpaceOnUse" x1="11.36991515838" x2="11.36991515838" y1="14.72537043" y2="4.71984680838"><stop offset="0" stop-color="#ef5350"/><stop offset="1" stop-color="#e57373"/></linearGradient><linearGradient id="i" gradientUnits="userSpaceOnUse" x1="15.91787376662" x2="15.91787509878" y1="14.72537044162" y2="4.71984682"><stop offset="0" stop-color="#66bb6a"/><stop offset="1" stop-color="#81c784"/></linearGradient><linearGradient id="j" gradientUnits="userSpaceOnUse" x1="5.45756476662" x2="5.45756609878" y1="14.72536644162" y2="4.71984608594"><stop offset="0" stop-color="#26a69a"/><stop offset="1" stop-color="#4db6ac"/></linearGradient><linearGradient id="k" gradientUnits="userSpaceOnUse" x1="9.09593276662" x2="9.09593543094" y1="14.72537044162" y2="4.71984780838"><stop offset="0" stop-color="#ffa726"/><stop offset="1" stop-color="#ffb74d"/></linearGradient><path d="m3.523438 19.273438h14.894531v.910156h-14.894531zm0 0" fill="url(#a)"/><path d="m18.417969 19.273438h1.820312v-.910157h-1.820312zm0 0" fill="url(#c)"/><path d="m3.523438 19.273438h-1.816407v.910156h1.816407zm0 0" fill="url(#d)"/><path d="m3.523438 19.273438h-1.816407v-.910157h1.816407zm0 0" fill="url(#e)"/><path d="m18.417969 19.273438h1.820312v.910156h-1.820312zm0 0" fill="url(#f)"/><path d="m2.5 2.046875h16.828125c.378906 0 .683594.304687.683594.683594v15.917969c0 .375-.304688.683593-.683594.683593h-16.828125c-.375 0-.679688-.308593-.679688-.683593v-15.917969c0-.378907.304688-.683594.679688-.683594zm0 0" fill="url(#g)"/><path d="m2.5 19.332031c-.375 0-.679688-.304687-.679688-.683593v-.285157c0 .378907.304688.683594.679688.683594h16.828125c.378906 0 .683594-.304687.683594-.683594v.285157c0 .378906-.304688.683593-.683594.683593zm0 0" fill-opacity=".235294"/><path d="m2.5 2.046875c-.375 0-.679688.304687-.679688.683594v.285156c0-.378906.304688-.683594.679688-.683594h16.828125c.378906 0 .683594.304688.683594.683594v-.285156c0-.378907-.304688-.683594-.683594-.683594zm0 0" fill="#fff"/><path d="m2.5 1.925781c-.410156 0-.746094.335938-.746094.746094v15.917969c0 .414062.335938.746094.746094.746094h16.828125c.414063 0 .746094-.332032.746094-.746094v-15.917969c0-.410156-.332031-.746094-.746094-.746094zm0 .128907h16.828125c.34375 0 .617187.273437.617187.617187v15.917969c0 .34375-.273437.617187-.617187.617187h-16.828125c-.34375 0-.617188-.273437-.617188-.617187v-15.917969c0-.34375.273438-.617187.617188-.617187zm0 0" fill="#212121"/><path d="m11.824219 11.996094h1.820312c.25 0 .453125.203125.453125.457031v1.816406c0 .253907-.203125.457031-.453125.457031h-1.820312c-.25 0-.453125-.203124-.453125-.457031v-1.816406c0-.253906.203125-.457031.453125-.457031zm0 0" fill="url(#h)"/><path d="m15.464844 6.085938h1.816406c.253906 0 .457031.203124.457031.453124v7.730469c0 .253907-.203125.457031-.457031.457031h-1.816406c-.253906 0-.457032-.203124-.457032-.457031v-7.730469c0-.25.203126-.453124.457032-.453124zm0 0" fill="url(#i)"/><path d="m4.546875 4.71875h1.820313c.25 0 .453124.203125.453124.457031v9.09375c0 .253907-.203124.457031-.453124.457031h-1.820313c-.25 0-.453125-.203124-.453125-.457031v-9.09375c0-.253906.203125-.457031.453125-.457031zm0 0" fill="url(#j)"/><path d="m8.1875 9.269531h1.816406c.253906 0 .457032.203125.457032.453125v4.546875c0 .253907-.203126.457031-.457032.457031h-1.816406c-.253906 0-.457031-.203124-.457031-.457031v-4.546875c0-.25.203125-.453125.457031-.453125zm0 0" fill="url(#k)"/><path d="m4.546875 4.71875c-.25 0-.453125.203125-.453125.457031v.226563c0-.253906.203125-.457032.453125-.457032h1.820313c.25 0 .453124.203126.453124.457032v-.226563c0-.253906-.203124-.457031-.453124-.457031zm10.917969 1.367188c-.253906 0-.457032.199218-.457032.453124v.226563c0-.25.203126-.453125.457032-.453125h1.816406c.253906 0 .457031.203125.457031.453125v-.226563c0-.253906-.203125-.453124-.457031-.453124zm-7.277344 3.183593c-.253906 0-.457031.199219-.457031.453125v.226563c0-.25.203125-.453125.457031-.453125h1.816406c.253906 0 .457032.203125.457032.453125v-.226563c0-.253906-.203126-.453125-.457032-.453125zm3.636719 2.726563c-.25 0-.453125.203125-.453125.457031v.226563c0-.253907.203125-.457032.453125-.457032h1.820312c.25 0 .453125.203125.453125.457032v-.226563c0-.253906-.203125-.457031-.453125-.457031zm0 0" fill="#fff" fill-opacity=".392157"/><path d="m4.09375 14.269531v.457031c0 .25.203125.453126.453125.453126h1.820313c.25 0 .453124-.203126.453124-.453126v-.457031c0 .253907-.203124.457031-.453124.457031h-1.820313c-.25 0-.453125-.203124-.453125-.457031zm3.636719 0v.457031c0 .25.203125.453126.457031.453126h1.816406c.253906 0 .457032-.203126.457032-.453126v-.457031c0 .253907-.203126.457031-.457032.457031h-1.816406c-.253906 0-.457031-.203124-.457031-.457031zm3.640625 0v.457031c0 .25.203125.453126.453125.453126h1.820312c.25 0 .453125-.203126.453125-.453126v-.457031c0 .253907-.203125.457031-.453125.457031h-1.820312c-.25 0-.453125-.203124-.453125-.457031zm3.636718 0v.457031c0 .25.203126.453126.457032.453126h1.816406c.253906 0 .457031-.203126.457031-.453126v-.457031c0 .253907-.203125.457031-.457031.457031h-1.816406c-.253906 0-.457032-.203124-.457032-.457031zm0 0" fill-opacity=".235294"/><g fill="none" stroke="#212121" stroke-linejoin="round" stroke-width="3" transform="matrix(.0429729 0 0 .0429729 0 9.239163)"><path d="m275.155542 64.15516h42.359591c5.817627 0 10.544448 4.726822 10.544448 10.635348v42.268691c0 5.908527-4.726821 10.635348-10.544448 10.635348h-42.359591c-5.817626 0-10.544447-4.726821-10.544447-10.635348v-42.268691c0-5.908526 4.726821-10.635348 10.544447-10.635348zm0 0"/><path d="m359.874725-73.377161h42.26869c5.908527 0 10.635348 4.726822 10.635348 10.544448v179.891912c0 5.908527-4.726821 10.635348-10.635348 10.635348h-42.26869c-5.908527 0-10.635348-4.726821-10.635348-10.635348v-179.891912c0-5.817626 4.726821-10.544448 10.635348-10.544448zm0 0"/><path d="m105.808078-105.192304h42.359591c5.817626 0 10.544447 4.726821 10.544447 10.635348v211.616155c0 5.908527-4.726821 10.635348-10.544447 10.635348h-42.359591c-5.817627 0-10.544448-4.726821-10.544448-10.635348v-211.616155c0-5.908527 4.726821-10.635348 10.544448-10.635348zm0 0"/><path d="m190.52726.706674h42.268691c5.908527 0 10.635348 4.726821 10.635348 10.544447v105.808078c0 5.908527-4.726821 10.635348-10.635348 10.635348h-42.268691c-5.908527 0-10.635348-4.726821-10.635348-10.635348v-105.808078c0-5.817626 4.726821-10.544447 10.635348-10.544447zm0 0"/></g></svg>

<?xml version="1.0" encoding="UTF-8"?>
<svg xmlns="http://www.w3.org/2000/svg" xmlns:xlink="http://www.w3.org/1999/xlink" width="22px" height="22px" viewBox="0 0 22 22" version="1.1">
<defs>
<linearGradient id="linear0" gradientUnits="userSpaceOnUse" x1="254" y1="233.5" x2="254" y2="254.666672" gradientTransform="matrix(0.0429729,0,0,0.0429729,-0.00000262285,9.239165)">
<stop offset="0" style="stop-color:rgb(0%,0%,0%);stop-opacity:0.27451;"/>
<stop offset="1" style="stop-color:rgb(0%,0%,0%);stop-opacity:0;"/>
</linearGradient>
<radialGradient id="radial0" gradientUnits="userSpaceOnUse" cx="450.908936" cy="189.579361" fx="450.908936" fy="189.579361" r="21.166656" gradientTransform="matrix(0.000000119742,-0.0537161,-0.0966889,-0.0000000698078,36.522014,43.721791)">
<stop offset="0" style="stop-color:rgb(0%,0%,0%);stop-opacity:0.313726;"/>
<stop offset="0.222222" style="stop-color:rgb(0%,0%,0%);stop-opacity:0.27451;"/>
<stop offset="1" style="stop-color:rgb(0%,0%,0%);stop-opacity:0;"/>
</radialGradient>
<radialGradient id="radial1" gradientUnits="userSpaceOnUse" cx="450.908936" cy="189.579361" fx="450.908936" fy="189.579361" r="21.166656" gradientTransform="matrix(-0.000000119742,0.0537161,0.0966889,0.0000000698078,-14.578108,-5.175142)">
<stop offset="0" style="stop-color:rgb(0%,0%,0%);stop-opacity:0.313726;"/>
<stop offset="0.222222" style="stop-color:rgb(0%,0%,0%);stop-opacity:0.27451;"/>
<stop offset="1" style="stop-color:rgb(0%,0%,0%);stop-opacity:0;"/>
</radialGradient>
<radialGradient id="radial2" gradientUnits="userSpaceOnUse" cx="450.908936" cy="189.579361" fx="450.908936" fy="189.579361" r="21.166656" gradientTransform="matrix(-0.000000119742,-0.0537161,0.0966889,-0.0000000698078,-14.578108,43.721791)">
<stop offset="0" style="stop-color:rgb(0%,0%,0%);stop-opacity:0.313726;"/>
<stop offset="0.222222" style="stop-color:rgb(0%,0%,0%);stop-opacity:0.27451;"/>
<stop offset="1" style="stop-color:rgb(0%,0%,0%);stop-opacity:0;"/>
</radialGradient>
<radialGradient id="radial3" gradientUnits="userSpaceOnUse" cx="450.908936" cy="189.579361" fx="450.908936" fy="189.579361" r="21.166656" gradientTransform="matrix(0.000000119742,0.0537161,-0.0966889,0.0000000698078,36.522013,-5.175142)">
<stop offset="0" style="stop-color:rgb(0%,0%,0%);stop-opacity:0.313726;"/>
<stop offset="0.222222" style="stop-color:rgb(0%,0%,0%);stop-opacity:0.27451;"/>
<stop offset="1" style="stop-color:rgb(0%,0%,0%);stop-opacity:0;"/>
</radialGradient>
<linearGradient id="linear1" gradientUnits="userSpaceOnUse" x1="254" y1="-168.666656" x2="254" y2="233.5" gradientTransform="matrix(0.0429729,0,0,0.0429729,0,9.296012)">
<stop offset="0" style="stop-color:rgb(93.333334%,93.333334%,93.333334%);stop-opacity:1;"/>
<stop offset="1" style="stop-color:rgb(87.843138%,87.843138%,87.843138%);stop-opacity:1;"/>
</linearGradient>
<linearGradient id="linear2" gradientUnits="userSpaceOnUse" x1="296.333344" y1="127.666679" x2="296.333344" y2="-105.166656" gradientTransform="matrix(0.0429729,0,0,0.0429729,-1.364388,9.239163)">
<stop offset="0" style="stop-color:rgb(93.725491%,32.549021%,31.37255%);stop-opacity:1;"/>
<stop offset="1" style="stop-color:rgb(89.803922%,45.09804%,45.09804%);stop-opacity:1;"/>
</linearGradient>
<linearGradient id="linear3" gradientUnits="userSpaceOnUse" x1="306.916656" y1="127.666656" x2="306.916687" y2="-105.166679" gradientTransform="matrix(0.0429729,0,0,0.0429729,2.728775,9.239164)">
<stop offset="0" style="stop-color:rgb(40.000001%,73.333335%,41.568628%);stop-opacity:1;"/>
<stop offset="1" style="stop-color:rgb(50.588238%,78.039217%,51.764709%);stop-opacity:1;"/>
</linearGradient>
<linearGradient id="linear4" gradientUnits="userSpaceOnUse" x1="306.916656" y1="127.666656" x2="306.916687" y2="-105.166603" gradientTransform="matrix(0.0429729,0,0,0.0429729,-7.731534,9.23916)">
<stop offset="0" style="stop-color:rgb(14.901961%,65.098041%,60.392159%);stop-opacity:1;"/>
<stop offset="1" style="stop-color:rgb(30.19608%,71.372551%,67.450982%);stop-opacity:1;"/>
</linearGradient>
<linearGradient id="linear5" gradientUnits="userSpaceOnUse" x1="306.916656" y1="127.666656" x2="306.916718" y2="-105.166656" gradientTransform="matrix(0.0429729,0,0,0.0429729,-4.093166,9.239164)">
<stop offset="0" style="stop-color:rgb(100%,65.490198%,14.901961%);stop-opacity:1;"/>
<stop offset="1" style="stop-color:rgb(100%,71.764708%,30.19608%);stop-opacity:1;"/>
</linearGradient>
</defs>
<g id="surface1">
<path style=" stroke:none;fill-rule:nonzero;fill:url(#linear0);" d="M 3.523438 19.273438 L 18.417969 19.273438 L 18.417969 20.183594 L 3.523438 20.183594 Z M 3.523438 19.273438 "/>
<path style=" stroke:none;fill-rule:nonzero;fill:url(#radial0);" d="M 18.417969 19.273438 L 20.238281 19.273438 L 20.238281 18.363281 L 18.417969 18.363281 Z M 18.417969 19.273438 "/>
<path style=" stroke:none;fill-rule:nonzero;fill:url(#radial1);" d="M 3.523438 19.273438 L 1.707031 19.273438 L 1.707031 20.183594 L 3.523438 20.183594 Z M 3.523438 19.273438 "/>
<path style=" stroke:none;fill-rule:nonzero;fill:url(#radial2);" d="M 3.523438 19.273438 L 1.707031 19.273438 L 1.707031 18.363281 L 3.523438 18.363281 Z M 3.523438 19.273438 "/>
<path style=" stroke:none;fill-rule:nonzero;fill:url(#radial3);" d="M 18.417969 19.273438 L 20.238281 19.273438 L 20.238281 20.183594 L 18.417969 20.183594 Z M 18.417969 19.273438 "/>
<path style=" stroke:none;fill-rule:nonzero;fill:url(#linear1);" d="M 2.5 2.046875 L 19.328125 2.046875 C 19.707031 2.046875 20.011719 2.351562 20.011719 2.730469 L 20.011719 18.648438 C 20.011719 19.023438 19.707031 19.332031 19.328125 19.332031 L 2.5 19.332031 C 2.125 19.332031 1.820312 19.023438 1.820312 18.648438 L 1.820312 2.730469 C 1.820312 2.351562 2.125 2.046875 2.5 2.046875 Z M 2.5 2.046875 "/>
<path style=" stroke:none;fill-rule:nonzero;fill:rgb(0%,0%,0%);fill-opacity:0.235294;" d="M 2.5 19.332031 C 2.125 19.332031 1.820312 19.027344 1.820312 18.648438 L 1.820312 18.363281 C 1.820312 18.742188 2.125 19.046875 2.5 19.046875 L 19.328125 19.046875 C 19.707031 19.046875 20.011719 18.742188 20.011719 18.363281 L 20.011719 18.648438 C 20.011719 19.027344 19.707031 19.332031 19.328125 19.332031 Z M 2.5 19.332031 "/>
<path style=" stroke:none;fill-rule:nonzero;fill:rgb(100%,100%,100%);fill-opacity:1;" d="M 2.5 2.046875 C 2.125 2.046875 1.820312 2.351562 1.820312 2.730469 L 1.820312 3.015625 C 1.820312 2.636719 2.125 2.332031 2.5 2.332031 L 19.328125 2.332031 C 19.707031 2.332031 20.011719 2.636719 20.011719 3.015625 L 20.011719 2.730469 C 20.011719 2.351562 19.707031 2.046875 19.328125 2.046875 Z M 2.5 2.046875 "/>
<path style=" stroke:none;fill-rule:nonzero;fill:rgb(12.941177%,12.941177%,12.941177%);fill-opacity:1;" d="M 2.5 1.925781 C 2.089844 1.925781 1.753906 2.261719 1.753906 2.671875 L 1.753906 18.589844 C 1.753906 19.003906 2.089844 19.335938 2.5 19.335938 L 19.328125 19.335938 C 19.742188 19.335938 20.074219 19.003906 20.074219 18.589844 L 20.074219 2.671875 C 20.074219 2.261719 19.742188 1.925781 19.328125 1.925781 Z M 2.5 2.054688 L 19.328125 2.054688 C 19.671875 2.054688 19.945312 2.328125 19.945312 2.671875 L 19.945312 18.589844 C 19.945312 18.933594 19.671875 19.207031 19.328125 19.207031 L 2.5 19.207031 C 2.15625 19.207031 1.882812 18.933594 1.882812 18.589844 L 1.882812 2.671875 C 1.882812 2.328125 2.15625 2.054688 2.5 2.054688 Z M 2.5 2.054688 "/>
<path style=" stroke:none;fill-rule:nonzero;fill:url(#linear2);" d="M 11.824219 11.996094 L 13.644531 11.996094 C 13.894531 11.996094 14.097656 12.199219 14.097656 12.453125 L 14.097656 14.269531 C 14.097656 14.523438 13.894531 14.726562 13.644531 14.726562 L 11.824219 14.726562 C 11.574219 14.726562 11.371094 14.523438 11.371094 14.269531 L 11.371094 12.453125 C 11.371094 12.199219 11.574219 11.996094 11.824219 11.996094 Z M 11.824219 11.996094 "/>
<path style=" stroke:none;fill-rule:nonzero;fill:url(#linear3);" d="M 15.464844 6.085938 L 17.28125 6.085938 C 17.535156 6.085938 17.738281 6.289062 17.738281 6.539062 L 17.738281 14.269531 C 17.738281 14.523438 17.535156 14.726562 17.28125 14.726562 L 15.464844 14.726562 C 15.210938 14.726562 15.007812 14.523438 15.007812 14.269531 L 15.007812 6.539062 C 15.007812 6.289062 15.210938 6.085938 15.464844 6.085938 Z M 15.464844 6.085938 "/>
<path style=" stroke:none;fill-rule:nonzero;fill:url(#linear4);" d="M 4.546875 4.71875 L 6.367188 4.71875 C 6.617188 4.71875 6.820312 4.921875 6.820312 5.175781 L 6.820312 14.269531 C 6.820312 14.523438 6.617188 14.726562 6.367188 14.726562 L 4.546875 14.726562 C 4.296875 14.726562 4.09375 14.523438 4.09375 14.269531 L 4.09375 5.175781 C 4.09375 4.921875 4.296875 4.71875 4.546875 4.71875 Z M 4.546875 4.71875 "/>
<path style=" stroke:none;fill-rule:nonzero;fill:url(#linear5);" d="M 8.1875 9.269531 L 10.003906 9.269531 C 10.257812 9.269531 10.460938 9.472656 10.460938 9.722656 L 10.460938 14.269531 C 10.460938 14.523438 10.257812 14.726562 10.003906 14.726562 L 8.1875 14.726562 C 7.933594 14.726562 7.730469 14.523438 7.730469 14.269531 L 7.730469 9.722656 C 7.730469 9.472656 7.933594 9.269531 8.1875 9.269531 Z M 8.1875 9.269531 "/>
<path style=" stroke:none;fill-rule:nonzero;fill:rgb(100%,100%,100%);fill-opacity:0.392157;" d="M 4.546875 4.71875 C 4.296875 4.71875 4.09375 4.921875 4.09375 5.175781 L 4.09375 5.402344 C 4.09375 5.148438 4.296875 4.945312 4.546875 4.945312 L 6.367188 4.945312 C 6.617188 4.945312 6.820312 5.148438 6.820312 5.402344 L 6.820312 5.175781 C 6.820312 4.921875 6.617188 4.71875 6.367188 4.71875 Z M 15.464844 6.085938 C 15.210938 6.085938 15.007812 6.285156 15.007812 6.539062 L 15.007812 6.765625 C 15.007812 6.515625 15.210938 6.3125 15.464844 6.3125 L 17.28125 6.3125 C 17.535156 6.3125 17.738281 6.515625 17.738281 6.765625 L 17.738281 6.539062 C 17.738281 6.285156 17.535156 6.085938 17.28125 6.085938 Z M 8.1875 9.269531 C 7.933594 9.269531 7.730469 9.46875 7.730469 9.722656 L 7.730469 9.949219 C 7.730469 9.699219 7.933594 9.496094 8.1875 9.496094 L 10.003906 9.496094 C 10.257812 9.496094 10.460938 9.699219 10.460938 9.949219 L 10.460938 9.722656 C 10.460938 9.46875 10.257812 9.269531 10.003906 9.269531 Z M 11.824219 11.996094 C 11.574219 11.996094 11.371094 12.199219 11.371094 12.453125 L 11.371094 12.679688 C 11.371094 12.425781 11.574219 12.222656 11.824219 12.222656 L 13.644531 12.222656 C 13.894531 12.222656 14.097656 12.425781 14.097656 12.679688 L 14.097656 12.453125 C 14.097656 12.199219 13.894531 11.996094 13.644531 11.996094 Z M 11.824219 11.996094 "/>
<path style=" stroke:none;fill-rule:nonzero;fill:rgb(0%,0%,0%);fill-opacity:0.235294;" d="M 4.09375 14.269531 L 4.09375 14.726562 C 4.09375 14.976562 4.296875 15.179688 4.546875 15.179688 L 6.367188 15.179688 C 6.617188 15.179688 6.820312 14.976562 6.820312 14.726562 L 6.820312 14.269531 C 6.820312 14.523438 6.617188 14.726562 6.367188 14.726562 L 4.546875 14.726562 C 4.296875 14.726562 4.09375 14.523438 4.09375 14.269531 Z M 7.730469 14.269531 L 7.730469 14.726562 C 7.730469 14.976562 7.933594 15.179688 8.1875 15.179688 L 10.003906 15.179688 C 10.257812 15.179688 10.460938 14.976562 10.460938 14.726562 L 10.460938 14.269531 C 10.460938 14.523438 10.257812 14.726562 10.003906 14.726562 L 8.1875 14.726562 C 7.933594 14.726562 7.730469 14.523438 7.730469 14.269531 Z M 11.371094 14.269531 L 11.371094 14.726562 C 11.371094 14.976562 11.574219 15.179688 11.824219 15.179688 L 13.644531 15.179688 C 13.894531 15.179688 14.097656 14.976562 14.097656 14.726562 L 14.097656 14.269531 C 14.097656 14.523438 13.894531 14.726562 13.644531 14.726562 L 11.824219 14.726562 C 11.574219 14.726562 11.371094 14.523438 11.371094 14.269531 Z M 15.007812 14.269531 L 15.007812 14.726562 C 15.007812 14.976562 15.210938 15.179688 15.464844 15.179688 L 17.28125 15.179688 C 17.535156 15.179688 17.738281 14.976562 17.738281 14.726562 L 17.738281 14.269531 C 17.738281 14.523438 17.535156 14.726562 17.28125 14.726562 L 15.464844 14.726562 C 15.210938 14.726562 15.007812 14.523438 15.007812 14.269531 Z M 15.007812 14.269531 "/>
<path style="fill:none;stroke-width:3;stroke-linecap:butt;stroke-linejoin:round;stroke:rgb(12.941177%,12.941177%,12.941177%);stroke-opacity:1;stroke-miterlimit:4;" d="M 275.155542 64.15516 L 317.515133 64.15516 C 323.33276 64.15516 328.059581 68.881982 328.059581 74.790508 L 328.059581 117.059199 C 328.059581 122.967726 323.33276 127.694547 317.515133 127.694547 L 275.155542 127.694547 C 269.337916 127.694547 264.611095 122.967726 264.611095 117.059199 L 264.611095 74.790508 C 264.611095 68.881982 269.337916 64.15516 275.155542 64.15516 Z M 275.155542 64.15516 " transform="matrix(0.0429729,0,0,0.0429729,0,9.239163)"/>
<path style="fill:none;stroke-width:3;stroke-linecap:butt;stroke-linejoin:round;stroke:rgb(12.941177%,12.941177%,12.941177%);stroke-opacity:1;stroke-miterlimit:4;" d="M 359.874725 -73.377161 L 402.143415 -73.377161 C 408.051942 -73.377161 412.778763 -68.650339 412.778763 -62.832713 L 412.778763 117.059199 C 412.778763 122.967726 408.051942 127.694547 402.143415 127.694547 L 359.874725 127.694547 C 353.966198 127.694547 349.239377 122.967726 349.239377 117.059199 L 349.239377 -62.832713 C 349.239377 -68.650339 353.966198 -73.377161 359.874725 -73.377161 Z M 359.874725 -73.377161 " transform="matrix(0.0429729,0,0,0.0429729,0,9.239163)"/>
<path style="fill:none;stroke-width:3;stroke-linecap:butt;stroke-linejoin:round;stroke:rgb(12.941177%,12.941177%,12.941177%);stroke-opacity:1;stroke-miterlimit:4;" d="M 105.808078 -105.192304 L 148.167669 -105.192304 C 153.985295 -105.192304 158.712116 -100.465483 158.712116 -94.556956 L 158.712116 117.059199 C 158.712116 122.967726 153.985295 127.694547 148.167669 127.694547 L 105.808078 127.694547 C 99.990451 127.694547 95.26363 122.967726 95.26363 117.059199 L 95.26363 -94.556956 C 95.26363 -100.465483 99.990451 -105.192304 105.808078 -105.192304 Z M 105.808078 -105.192304 " transform="matrix(0.0429729,0,0,0.0429729,0,9.239163)"/>
<path style="fill:none;stroke-width:3;stroke-linecap:butt;stroke-linejoin:round;stroke:rgb(12.941177%,12.941177%,12.941177%);stroke-opacity:1;stroke-miterlimit:4;" d="M 190.52726 0.706674 L 232.795951 0.706674 C 238.704478 0.706674 243.431299 5.433495 243.431299 11.251121 L 243.431299 117.059199 C 243.431299 122.967726 238.704478 127.694547 232.795951 127.694547 L 190.52726 127.694547 C 184.618733 127.694547 179.891912 122.967726 179.891912 117.059199 L 179.891912 11.251121 C 179.891912 5.433495 184.618733 0.706674 190.52726 0.706674 Z M 190.52726 0.706674 " transform="matrix(0.0429729,0,0,0.0429729,0,9.239163)"/>
</g>
</svg>
